X:673
T: Bonnie Banchory
O:england
S: John Chambers, Scots-L, 11/97
C: J.S.Skinner
R: reel
M: C|
L: 1/8
K: A
|: AB | "A"cBAG ABcd | e^def "(E7)"e2AB | "A"cBAG "F#m"Acec | "Bm"B2E2 "E7"E2AB |
|       "A"cBAG ABcd | e^def "(E7)"e2cB | "D"AFBA "E7"GEed | "A"c2A2 A2 :|
|: cd | "A"ecfe "E7"dBed | "A"c2A2 A2cd | ecfe "B7"^dBba | "E7"g2e2 e2cd |
|       "A"ecfe "E7"dBed | "F#m"cAdc | "C#m"BGcB | "D"AFBA "E7"GEed | "A"c2A2 A2 :|
